X:22
T:Crossing The Delaware
C:Liz Carroll
S:Bernie Waugh
R:Reel
M:4/4
L:1/8
K:G
|:A|\
"G"BdAd BAGB|"C"AEGE "D"DEGA|"G"BdAB GABd|gb~ag "Em"edBd|
"C"~e2ge "G"d2gd|"Em"BedB "D"A2Bd|"C"egdg ~BAGA|"D"BGAd "G"G3:|
|:A|\
"G"Bd~dd GABd|"Bm7"bagb ~aeed|"Cmaj7"~BABd ~gedg|"Am7"egdG "D7"~BAAd|
"Gmaj7"BdAd ~BABd|"B7"gbag "C"edBd|e2ged2"D"gd|BGAd "G"G3:|

